src/assets/selectIconsSpells/sacro_3.svg

<svg xmlns="http://www.w3.org/2000/svg" viewBox="0 0 512 512"><path d="M0 0h512v512H0z"/><path fill="#fff" d="M255.9 19.77C241.5 109.6 229.4 163 196.2 196.2c-33.2 33.2-86.6 45.3-176.43 59.7C109.6 270.3 163 282.4 196.2 315.7c33.2 33.2 45.3 86.6 59.7 176.5 14.4-89.9 26.5-143.3 59.7-176.6 33.3-33.2 86.7-45.3 176.6-59.7-89.9-14.4-143.3-26.5-176.5-59.7-33.3-33.2-45.4-86.6-59.8-176.43zM423 89c-45.8 33.1-81 56.9-112.4 70.2 5.1 9.4 11 17.4 17.8 24.2 6.8 6.8 14.8 12.7 24.3 17.9 13.4-31.4 37.2-66.6 70.3-112.3zm-333.94.06C122.2 134.8 145.9 169.9 159.2 201.2c9.4-5.1 17.4-11 24.2-17.8 6.8-6.8 12.7-14.8 17.8-24.2-31.3-13.3-66.4-37-112.14-70.14zM352.7 310.5c-9.5 5.2-17.5 11.1-24.3 17.9-6.8 6.8-12.7 14.8-17.9 24.3C342 366 377.2 389.8 423 423c-33.2-45.8-57-81-70.3-112.5zm-193.5.1C145.9 342 122.1 377.2 89 423c45.7-33.1 80.9-56.9 112.3-70.3-5.2-9.5-11.1-17.5-17.9-24.3-6.8-6.8-14.8-12.7-24.2-17.8z"/></svg>

<?xml version="1.0" encoding="UTF-8" standalone="no"?>
<!DOCTYPE svg PUBLIC "-//W3C//DTD SVG 1.1//EN" "http://www.w3.org/Graphics/SVG/1.1/DTD/svg11.dtd">
<svg width="100%" height="100%" viewBox="0 0 512 512" version="1.1" xmlns="http://www.w3.org/2000/svg" xmlns:xlink="http://www.w3.org/1999/xlink" xml:space="preserve" xmlns:serif="http://www.serif.com/" style="fill-rule:evenodd;clip-rule:evenodd;stroke-linejoin:round;stroke-miterlimit:2;">
    <rect x="0" y="0" width="512" height="512" style="fill-rule:nonzero;"/>
    <path d="M423,89C377.2,122.1 342,145.9 310.6,159.2C315.7,168.6 321.6,176.6 328.4,183.4C335.2,190.2 343.2,196.1 352.7,201.3C366.1,169.9 389.9,134.7 423,89ZM89.06,89.06C122.2,134.8 145.9,169.9 159.2,201.2C168.6,196.1 176.6,190.2 183.4,183.4C190.2,176.6 196.1,168.6 201.2,159.2C169.9,145.9 134.8,122.2 89.06,89.06ZM352.7,310.5C343.2,315.7 335.2,321.6 328.4,328.4C321.6,335.2 315.7,343.2 310.5,352.7C342,366 377.2,389.8 423,423C389.8,377.2 366,342 352.7,310.5ZM159.2,310.6C145.9,342 122.1,377.2 89,423C134.7,389.9 169.9,366.1 201.3,352.7C196.1,343.2 190.2,335.2 183.4,328.4C176.6,321.6 168.6,315.7 159.2,310.6Z" style="fill:rgb(204,156,39);fill-rule:nonzero;"/>
    <path d="M255.9,19.77C270.3,109.6 282.4,163 315.7,196.2C348.9,229.4 402.3,241.5 492.2,255.9C402.3,270.3 348.9,282.4 315.6,315.6C282.4,348.9 270.3,402.3 255.9,492.2C241.5,402.3 229.4,348.9 196.2,315.7C163,282.4 109.6,270.3 19.77,255.9C109.6,241.5 163,229.4 196.2,196.2C229.4,163 241.5,109.6 255.9,19.77Z" style="fill:rgb(255,251,0);"/>
</svg>
